X:244
T:J'ay mis mon cueur (Chanson 22)
C:Manuscript de Bayeux (fin XVe)
R:Chanson
S:from bay22.MID
M:4/4
L:1/8
Q:1/4=88
K:F 
V:1
a | f2 g2 a3g | a2za c'2 c'2 | ba/2g/2 a2 g4- | 
g4 d'4 | d'2 d'd'2<c'2b/2a/2 | g2zg c'2 d'2 | c'b/2a/2 b2 a4- | 
a4 d'4 | d'2 d'2 c'3b/2a/2 | g2zg c'2 c'2 | a2 a2 f2 a2 | 
g3f/2e/2 d4 | a4 c'2 c'2 | d'3c'/2b/2 c'3d' | ba/2g/2 aa g2za | 
f2 g2 a3-a/2z/2 | z2 c'2 d'3c'/2b/2 | c'3d' ba/2g/2 aa | g4 d'4 | 
d'2 d'd'2<c'2b/2a/2 | g2zg c'2 d'2 | c'b/2a/2 b2 a4- | a2 c'2 d'4- | 
d'2 d'd'2<c'2b/2a/2 | g2zg c'2 d'2 | ba/2g/2 a2 g4- | g8 |]




